!!!COM:	Messiaen
!!!OTL:	739_Mes-18/40/102-108
**kern	**kern	**dynam	**kern	**kern	**dynam
*part2	*part2	*part2	*part1	*part1	*part1
*staff4	*staff3	*	*staff2	*staff1	*
*I"Piano	*	*	*I"Piano	*	*
*I'Pno.	*	*	*I'Pno.	*	*
*clefF4	*clefF4	*	*clefF4	*clefG2	*
*k[]	*k[]	*	*k[]	*k[]	*
*C:	*C:	*	*C:	*C:	*
*M2/4	*M2/4	*	*M2/4	*M2/4	*
*8ba	*8ba	*	*	*	*
=1	=	=	=	=	=
2CCC#X 2GGGn	4.BBB~ 4.FFn	mf	2r	2r	.
.	[8GGG#X~ [8DD	.	.	.	.
=2	=2	=2	=2	=2	=2
4AAAA#X 4EEE	16GGG#KL] 16DD]	.	2r	2r	.
.	[8.BBBJ [8.FFn	.	.	.	.
[4CCC#X [4GGGn	8.BBBL] 8.FF]	.	.	.	.
.	[16GGG#XJk [16DD	ff	.	.	.
=3	=3	=3	=3	=3	=3
4CCC#] 4GGG]	16GGG#LL] 16DD]	.	2r	2r	.
.	16BBB'J 16FF	.	.	.	.
.	8GGG#X'J 8DD	.	.	.	.
[4AAAA#X [4EEE	8BBB^L 8FF	p	.	.	.
.	8GGG#J 8DD	.	.	.	.
=4	=4	=4	=4	=4	=4
!!linebreak:original
4AAAA#] 4EEE]	8BBBL 8FF	.	[4F~ [4A-X [4B-X [4d	4bn~ 4een 4aa-X	ff
.	8GGG#XJ 8DD	.	.	.	.
8CCC#X'L 8GGGn	8BBB^L 8FF	.	16FKL] 16A-] 16B-] 16d]	(8a-XL 8cc#X 8ffn	.
.	.	.	8.A-^J 8.c 8.d 8.f	.	.
[8AAAAJ [8EEE	8GGG#J 8DD	.	.	8dJ) 8g 8bn	.
=5	=5	=5	=5	=5	=5
8AAAAL] 8EEE]	8BBB^L 8FF	.	2G 2B-X 2e-X	16.b-X~LL 16.ee-X 16.gg 16.bb-X	.
.	.	.	.	(32an^Jk 32cc#X 32een	.
16CCC#X'L 16GGGn	8GGG#XJ 8DD	.	.	[8b-J [8ee-X [8gg [8bb-	.
[16AAAA~JJ [16EEE	.	.	.	.	.
4AAAA_ 4EEE_	8BBBL 8FF	.	.	4b-]) 4ee-] 4gg] 4bb-]	.
.	8GGG#J 8DD	.	.	.	.
=6	=6	=6	=6	=6	=6
4AAAA_ 4EEE_	4.BBB~ 4.FFn	mf	[4F~ [4A-X [4B-X [4d	4bn~ 4een 4aa-X	.
16AAAAKL] 16EEE]	.	.	16FKL] 16A-] 16B-] 16d]	(8a-XL 8cc#X 8ffn	.
[8.CCC#XJ [8.GGGn	.	.	8.A-^J 8.c 8.d 8.f	.	.
.	[8GGG#X~ [8DD	.	.	8dJ) 8g 8bn	.
=7	=7	=7	=7	=7	=7
*X8ba	*X8ba	*	*	*	*
4CC#_ 4GGn_	16GG#KL] 16D]	.	2G 2B-X 2e-X	16.b-X~LL 16.ee-X 16.gg 16.bb-X	.
.	[8.BBJ [8.Fn	.	.	.	.
.	.	.	.	(32an^Jk 32cc#X 32een	.
.	.	.	.	[8b-J [8ee-X [8gg [8bb-	.
16CC#KL] 16GGn]	8.BBL] 8.F]	.	.	4b-]) 4ee-] 4gg] 4bb-]	.
[8.AAA#XJ [8.EE	.	.	.	.	.
.	[16GG#XJk [16D	ff	.	.	.
==	==	==	==	==	==
*-	*-	*-	*-	*-	*-
!!!system-decoration: {(s1,s2)}{(s3,s4)}
!!!ONB: Converted from MusicXML on 2020/01/17
